data_server/bot/microphone-on1.svg

<?xml version="1.0" encoding="UTF-8" standalone="no"?>
<svg
   xmlns:dc="http://purl.org/dc/elements/1.1/"
   xmlns:cc="http://creativecommons.org/ns#"
   xmlns:rdf="http://www.w3.org/1999/02/22-rdf-syntax-ns#"
   xmlns:svg="http://www.w3.org/2000/svg"
   xmlns="http://www.w3.org/2000/svg"
   xmlns:sodipodi="http://sodipodi.sourceforge.net/DTD/sodipodi-0.dtd"
   xmlns:inkscape="http://www.inkscape.org/namespaces/inkscape"
   version="1.1"
   id="Capa_1"
   x="0px"
   y="0px"
   viewBox="0 0 58 58"
   style="enable-background:new 0 0 58 58;"
   xml:space="preserve"
   sodipodi:docname="microphone-on1.svg"
   inkscape:version="1.0.2-2 (e86c870879, 2021-01-15)"><metadata
   id="metadata43"><rdf:RDF><cc:Work
       rdf:about=""><dc:format>image/svg+xml</dc:format><dc:type
         rdf:resource="http://purl.org/dc/dcmitype/StillImage" /><dc:title></dc:title></cc:Work></rdf:RDF></metadata><defs
   id="defs41" /><sodipodi:namedview
   pagecolor="#ffffff"
   bordercolor="#666666"
   borderopacity="1"
   objecttolerance="10"
   gridtolerance="10"
   guidetolerance="10"
   inkscape:pageopacity="0"
   inkscape:pageshadow="2"
   inkscape:window-width="2400"
   inkscape:window-height="1271"
   id="namedview39"
   showgrid="false"
   inkscape:zoom="18.367748"
   inkscape:cx="29"
   inkscape:cy="29"
   inkscape:window-x="2391"
   inkscape:window-y="-9"
   inkscape:window-maximized="1"
   inkscape:current-layer="Capa_1" />
<g
   id="g6"
   style="fill:#ff0000">
	<path
   d="M44,28c-0.552,0-1,0.447-1,1v6c0,7.72-6.28,14-14,14s-14-6.28-14-14v-6c0-0.553-0.448-1-1-1s-1,0.447-1,1v6   c0,8.485,6.644,15.429,15,15.949V56h-5c-0.552,0-1,0.447-1,1s0.448,1,1,1h12c0.552,0,1-0.447,1-1s-0.448-1-1-1h-5v-5.051   c8.356-0.52,15-7.465,15-15.949v-6C45,28.447,44.552,28,44,28z"
   id="path2"
   style="fill:#ff0000" />
	<path
   d="M29,46c6.065,0,11-4.935,11-11V11c0-6.065-4.935-11-11-11S18,4.935,18,11v24C18,41.065,22.935,46,29,46z"
   id="path4"
   style="fill:#ff0000" />
</g>
<g
   id="g8">
</g>
<g
   id="g10">
</g>
<g
   id="g12">
</g>
<g
   id="g14">
</g>
<g
   id="g16">
</g>
<g
   id="g18">
</g>
<g
   id="g20">
</g>
<g
   id="g22">
</g>
<g
   id="g24">
</g>
<g
   id="g26">
</g>
<g
   id="g28">
</g>
<g
   id="g30">
</g>
<g
   id="g32">
</g>
<g
   id="g34">
</g>
<g
   id="g36">
</g>
</svg>

<?xml version="1.0" encoding="UTF-8" standalone="no"?>
<svg
   xmlns:dc="http://purl.org/dc/elements/1.1/"
   xmlns:cc="http://creativecommons.org/ns#"
   xmlns:rdf="http://www.w3.org/1999/02/22-rdf-syntax-ns#"
   xmlns:svg="http://www.w3.org/2000/svg"
   xmlns="http://www.w3.org/2000/svg"
   xmlns:sodipodi="http://sodipodi.sourceforge.net/DTD/sodipodi-0.dtd"
   xmlns:inkscape="http://www.inkscape.org/namespaces/inkscape"
   version="1.1"
   id="Capa_1"
   x="0px"
   y="0px"
   viewBox="0 0 32 58"
   xml:space="preserve"
   sodipodi:docname="microphone-on1.svg"
   inkscape:version="1.0.2-2 (e86c870879, 2021-01-15)"
   width="32"
   height="58"><metadata
   id="metadata43"><rdf:RDF><cc:Work
       rdf:about=""><dc:format>image/svg+xml</dc:format><dc:type
         rdf:resource="http://purl.org/dc/dcmitype/StillImage" /><dc:title></dc:title></cc:Work></rdf:RDF></metadata><defs
   id="defs41" /><sodipodi:namedview
   pagecolor="#ffffff"
   bordercolor="#666666"
   borderopacity="1"
   objecttolerance="10"
   gridtolerance="10"
   guidetolerance="10"
   inkscape:pageopacity="0"
   inkscape:pageshadow="2"
   inkscape:window-width="2400"
   inkscape:window-height="1271"
   id="namedview39"
   showgrid="false"
   inkscape:zoom="8.3352138"
   inkscape:cx="3.0057167"
   inkscape:cy="37.399673"
   inkscape:window-x="2391"
   inkscape:window-y="-9"
   inkscape:window-maximized="1"
   inkscape:current-layer="Capa_1"
   inkscape:document-rotation="0"
   fit-margin-top="0"
   fit-margin-left="0"
   fit-margin-right="0"
   fit-margin-bottom="0" />
<g
   id="g6"
   style="fill:#ff0000"
   transform="translate(-13)">
	<path
   d="m 44,28 c -0.552,0 -1,0.447 -1,1 v 6 C 43,42.72 36.72,49 29,49 21.28,49 15,42.72 15,35 v -6 c 0,-0.553 -0.448,-1 -1,-1 -0.552,0 -1,0.447 -1,1 v 6 c 0,8.485 6.644,15.429 15,15.949 V 56 h -5 c -0.552,0 -1,0.447 -1,1 0,0.553 0.448,1 1,1 h 12 c 0.552,0 1,-0.447 1,-1 0,-0.553 -0.448,-1 -1,-1 H 30 V 50.949 C 38.356,50.429 45,43.484 45,35 v -6 c 0,-0.553 -0.448,-1 -1,-1 z"
   id="path2"
   style="fill:#ff0000" />
	<path
   d="m 29,46 c 6.065,0 11,-4.935 11,-11 V 11 C 40,4.935 35.065,0 29,0 22.935,0 18,4.935 18,11 v 24 c 0,6.065 4.935,11 11,11 z"
   id="path4"
   style="fill:#ff0000" />
</g>
<g
   id="g8"
   transform="translate(-13)">
</g>
<g
   id="g10"
   transform="translate(-13)">
</g>
<g
   id="g12"
   transform="translate(-13)">
</g>
<g
   id="g14"
   transform="translate(-13)">
</g>
<g
   id="g16"
   transform="translate(-13)">
</g>
<g
   id="g18"
   transform="translate(-13)">
</g>
<g
   id="g20"
   transform="translate(-13)">
</g>
<g
   id="g22"
   transform="translate(-13)">
</g>
<g
   id="g24"
   transform="translate(-13)">
</g>
<g
   id="g26"
   transform="translate(-13)">
</g>
<g
   id="g28"
   transform="translate(-13)">
</g>
<g
   id="g30"
   transform="translate(-13)">
</g>
<g
   id="g32"
   transform="translate(-13)">
</g>
<g
   id="g34"
   transform="translate(-13)">
</g>
<g
   id="g36"
   transform="translate(-13)">
</g>
</svg>
